X:51
T:week 5 homework - parallel period
M:3/4
L:1/4
K:D
D>E F|ABA|G F/E/ F/G/|A3|
D>E F|ABA|G F/E/ D/C/|D3||


